Numix-Light/16/status/indicator-keyboard-Ro-2.svg

<?xml version="1.0" encoding="UTF-8" standalone="no"?>
<svg
   xmlns:dc="http://purl.org/dc/elements/1.1/"
   xmlns:cc="http://creativecommons.org/ns#"
   xmlns:rdf="http://www.w3.org/1999/02/22-rdf-syntax-ns#"
   xmlns:svg="http://www.w3.org/2000/svg"
   xmlns="http://www.w3.org/2000/svg"
   xmlns:sodipodi="http://sodipodi.sourceforge.net/DTD/sodipodi-0.dtd"
   xmlns:inkscape="http://www.inkscape.org/namespaces/inkscape"
   viewBox="0 0 16 16"
   id="svg2"
   version="1.1"
   inkscape:version="0.91 r13725"
   sodipodi:docname="indicator-keyboard-Ro-2.svg">
  <metadata
     id="metadata14">
    <rdf:RDF>
      <cc:Work
         rdf:about="">
        <dc:format>image/svg+xml</dc:format>
        <dc:type
           rdf:resource="http://purl.org/dc/dcmitype/StillImage" />
      </cc:Work>
    </rdf:RDF>
  </metadata>
  <defs
     id="defs12" />
  <sodipodi:namedview
     pagecolor="#ffffff"
     bordercolor="#666666"
     borderopacity="1"
     objecttolerance="10"
     gridtolerance="10"
     guidetolerance="10"
     inkscape:pageopacity="0"
     inkscape:pageshadow="2"
     inkscape:window-width="640"
     inkscape:window-height="480"
     id="namedview10"
     showgrid="false"
     inkscape:zoom="14.75"
     inkscape:cx="8"
     inkscape:cy="8"
     inkscape:window-x="65"
     inkscape:window-y="24"
     inkscape:window-maximized="0"
     inkscape:current-layer="svg2" />
  <path
     style="fill:#353535;fill-opacity:1"
     d="M 1.5996094 0 C 0.71320937 2.9605947e-16 0 0.71320937 0 1.5996094 L 0 14.400391 C 2.9605947e-16 15.286791 0.71320937 16 1.5996094 16 L 14.400391 16 C 15.286791 16 16 15.286791 16 14.400391 L 16 1.5996094 C 16 0.71320937 15.286791 0 14.400391 0 L 1.5996094 0 z M 3.1699219 4.8046875 C 4.0279219 4.8046875 4.6734688 4.9670156 5.1054688 5.2910156 C 5.5434687 5.6150156 5.7617188 6.0944688 5.7617188 6.7304688 C 5.7617188 7.1984687 5.6385781 7.5678906 5.3925781 7.8378906 C 5.1465781 8.1078906 4.823875 8.3038281 4.421875 8.4238281 C 4.517875 8.5438281 4.6410156 8.7042031 4.7910156 8.9082031 C 4.9470156 9.1122031 5.1055781 9.3379844 5.2675781 9.5839844 C 5.4295781 9.8239844 5.5881406 10.075844 5.7441406 10.339844 C 5.9001406 10.603844 6.032625 10.855703 6.140625 11.095703 L 5.484375 11.095703 C 5.358375 10.855703 5.2203125 10.616953 5.0703125 10.376953 C 4.9263125 10.136953 4.7751406 9.9055939 4.6191406 9.6835938 C 4.4691406 9.4555937 4.3217344 9.2447344 4.1777344 9.0527344 L 3.8007812 8.5488281 C 3.6087812 8.5668281 3.4166094 8.5761719 3.2246094 8.5761719 L 2.2167969 8.5761719 L 2.2167969 11.095703 L 1.6054688 11.095703 L 1.6054688 4.9765625 C 1.8214688 4.9165625 2.0733281 4.8736094 2.3613281 4.8496094 C 2.6553281 4.8196094 2.9239219 4.8046875 3.1699219 4.8046875 z M 3.2421875 5.3359375 C 3.0141875 5.3359375 2.8126719 5.3452813 2.6386719 5.3632812 C 2.4706719 5.3752812 2.3307969 5.3864375 2.2167969 5.3984375 L 2.2167969 8.0546875 L 3.0625 8.0546875 C 3.3445 8.0546875 3.6112813 8.0415781 3.8632812 8.0175781 C 4.1152812 7.9875781 4.3354844 7.9278906 4.5214844 7.8378906 C 4.7074844 7.7418906 4.8529375 7.6075937 4.9609375 7.4335938 C 5.0689375 7.2595937 5.1230469 7.0226562 5.1230469 6.7226562 C 5.1230469 6.4466563 5.0689375 6.2171094 4.9609375 6.0371094 C 4.8529375 5.8571094 4.7130625 5.7172344 4.5390625 5.6152344 C 4.3650625 5.5072344 4.1635469 5.4344375 3.9355469 5.3984375 C 3.7135469 5.3564375 3.4821875 5.3359375 3.2421875 5.3359375 z M 8.96875 6.3359375 C 9.28075 6.3359375 9.5642656 6.395625 9.8222656 6.515625 C 10.080265 6.629625 10.302281 6.7937656 10.488281 7.0097656 C 10.680281 7.2197656 10.827688 7.4753906 10.929688 7.7753906 C 11.037688 8.0753906 11.091797 8.4074375 11.091797 8.7734375 C 11.091797 9.1394375 11.037687 9.4734375 10.929688 9.7734375 C 10.827688 10.073438 10.680281 10.327109 10.488281 10.537109 C 10.302281 10.747109 10.080265 10.913203 9.8222656 11.033203 C 9.5642656 11.147203 9.28075 11.203125 8.96875 11.203125 C 8.65675 11.203125 8.3712812 11.147203 8.1132812 11.033203 C 7.8552812 10.913203 7.6295 10.747109 7.4375 10.537109 C 7.2515 10.327109 7.1060469 10.073438 6.9980469 9.7734375 C 6.8960469 9.4734375 6.84375 9.1394375 6.84375 8.7734375 C 6.84375 8.4074375 6.8960469 8.0753906 6.9980469 7.7753906 C 7.1060469 7.4753906 7.2515 7.2197656 7.4375 7.0097656 C 7.6295 6.7937656 7.8552813 6.629625 8.1132812 6.515625 C 8.3712813 6.395625 8.65675 6.3359375 8.96875 6.3359375 z M 8.96875 6.8652344 C 8.50675 6.8652344 8.1410938 7.0406719 7.8710938 7.3886719 C 7.6010938 7.7306719 7.4648437 8.1914375 7.4648438 8.7734375 C 7.4648438 9.3554375 7.6010938 9.818156 7.8710938 10.160156 C 8.1410937 10.502156 8.50675 10.673828 8.96875 10.673828 C 9.43075 10.673828 9.7964064 10.502156 10.066406 10.160156 C 10.336406 9.8181561 10.470703 9.3554375 10.470703 8.7734375 C 10.470703 8.1914375 10.336406 7.7306719 10.066406 7.3886719 C 9.7964064 7.0406719 9.43075 6.8652344 8.96875 6.8652344 z M 13.068359 8.7539062 C 13.462259 8.7539062 13.758131 8.851875 13.957031 9.046875 C 14.155931 9.237975 14.255859 9.5044563 14.255859 9.8476562 C 14.255859 9.9997563 14.228428 10.14475 14.173828 10.28125 C 14.119228 10.41385 14.044772 10.543169 13.951172 10.667969 C 13.861472 10.792769 13.757625 10.912297 13.640625 11.029297 C 13.523625 11.146297 13.404103 11.263859 13.283203 11.380859 C 13.181803 11.478359 13.083828 11.578288 12.986328 11.679688 C 12.892728 11.777188 12.806516 11.877116 12.728516 11.978516 C 12.654416 12.076016 12.593675 12.172031 12.546875 12.269531 C 12.503975 12.363131 12.482422 12.457181 12.482422 12.550781 L 12.482422 12.5625 L 14.394531 12.5625 L 14.394531 12.896484 L 12.060547 12.896484 C 12.060547 12.888684 12.058621 12.874969 12.054688 12.855469 L 12.054688 12.755859 C 12.054688 12.572559 12.087997 12.402094 12.154297 12.246094 C 12.220597 12.086194 12.30485 11.937275 12.40625 11.796875 C 12.51155 11.656475 12.627153 11.525197 12.751953 11.404297 C 12.880653 11.283397 13.004094 11.165834 13.121094 11.052734 C 13.218594 10.959134 13.308731 10.869003 13.394531 10.783203 C 13.484231 10.693503 13.562606 10.603366 13.628906 10.509766 C 13.695206 10.416166 13.748109 10.316237 13.787109 10.210938 C 13.826109 10.105638 13.845703 9.9900344 13.845703 9.8652344 C 13.845703 9.5922344 13.771247 9.39825 13.623047 9.28125 C 13.478747 9.16035 13.296519 9.0996094 13.074219 9.0996094 C 12.949419 9.0996094 12.837734 9.1152844 12.740234 9.1464844 C 12.642734 9.1776844 12.556522 9.2149125 12.482422 9.2578125 C 12.412222 9.2968125 12.351481 9.3379594 12.300781 9.3808594 C 12.250081 9.4237594 12.212853 9.4570688 12.189453 9.4804688 L 11.990234 9.2167969 C 12.013634 9.1894969 12.054781 9.1503094 12.113281 9.0996094 C 12.175681 9.0450094 12.252097 8.9921062 12.341797 8.9414062 C 12.435397 8.8907063 12.543162 8.8476 12.664062 8.8125 C 12.784962 8.7735 12.920159 8.7539063 13.068359 8.7539062 z "
     id="path4" />
</svg>

<svg xmlns="http://www.w3.org/2000/svg" viewBox="0 0 16 16">
 <path d="m 1.6 0 c -0.886 0 -1.6 0.713 -1.6 1.6 l 0 12.801 c 0 0.886 0.713 1.6 1.6 1.6 l 12.801 0 c 0.886 0 1.6 -0.713 1.6 -1.6 l 0 -12.801 c 0 -0.886 -0.713 -1.6 -1.6 -1.6 l -12.801 0 z m 1.57 4.805 c 0.858 0 1.504 0.162 1.936 0.486 c 0.438 0.324 0.656 0.803 0.656 1.439 c 0 0.468 -0.123 0.837 -0.369 1.107 c -0.246 0.27 -0.569 0.466 -0.971 0.586 c 0.096 0.12 0.219 0.28 0.369 0.484 c 0.156 0.204 0.315 0.43 0.477 0.676 c 0.162 0.24 0.321 0.492 0.477 0.756 c 0.156 0.264 0.288 0.516 0.396 0.756 l -0.656 0 c -0.126 -0.24 -0.264 -0.479 -0.414 -0.719 c -0.144 -0.24 -0.295 -0.471 -0.451 -0.693 c -0.15 -0.228 -0.297 -0.439 -0.441 -0.631 l -0.377 -0.504 c -0.192 0.018 -0.384 0.027 -0.576 0.027 l -1.01 0 l 0 2.52 l -0.611 0 l 0 -6.119 c 0.216 -0.06 0.468 -0.103 0.756 -0.127 c 0.294 -0.03 0.563 -0.045 0.809 -0.045 z m 0.072 0.531 c -0.228 0 -0.43 0.009 -0.604 0.027 c -0.168 0.012 -0.308 0.023 -0.422 0.035 l 0 2.656 l 0.846 0 c 0.282 0 0.549 -0.013 0.801 -0.037 c 0.252 -0.03 0.472 -0.09 0.658 -0.18 c 0.186 -0.096 0.331 -0.23 0.439 -0.404 c 0.108 -0.174 0.162 -0.411 0.162 -0.711 c 0 -0.276 -0.054 -0.506 -0.162 -0.686 c -0.108 -0.18 -0.248 -0.32 -0.422 -0.422 c -0.174 -0.108 -0.376 -0.181 -0.604 -0.217 c -0.222 -0.042 -0.453 -0.063 -0.693 -0.063 z m 5.727 1 c 0.312 0 0.596 0.06 0.854 0.18 c 0.258 0.114 0.48 0.278 0.666 0.494 c 0.192 0.21 0.339 0.466 0.441 0.766 c 0.108 0.3 0.162 0.632 0.162 0.998 c 0 0.366 -0.054 0.7 -0.162 1 c -0.102 0.3 -0.249 0.554 -0.441 0.764 c -0.186 0.21 -0.408 0.376 -0.666 0.496 c -0.258 0.114 -0.542 0.17 -0.854 0.17 c -0.312 0 -0.597 -0.056 -0.855 -0.17 c -0.258 -0.12 -0.484 -0.286 -0.676 -0.496 c -0.186 -0.21 -0.331 -0.464 -0.439 -0.764 c -0.102 -0.3 -0.154 -0.634 -0.154 -1 c 0 -0.366 0.052 -0.698 0.154 -0.998 c 0.108 -0.3 0.253 -0.556 0.439 -0.766 c 0.192 -0.216 0.418 -0.38 0.676 -0.494 c 0.258 -0.12 0.543 -0.18 0.855 -0.18 z m 0 0.529 c -0.462 0 -0.828 0.175 -1.098 0.523 c -0.27 0.342 -0.406 0.803 -0.406 1.385 c 0 0.582 0.136 1.045 0.406 1.387 c 0.27 0.342 0.636 0.514 1.098 0.514 c 0.462 0 0.828 -0.172 1.098 -0.514 c 0.27 -0.342 0.404 -0.805 0.404 -1.387 c 0 -0.582 -0.134 -1.043 -0.404 -1.385 c -0.27 -0.348 -0.636 -0.523 -1.098 -0.523 z m 4.1 1.889 c 0.394 0 0.69 0.098 0.889 0.293 c 0.199 0.191 0.299 0.458 0.299 0.801 c 0 0.152 -0.027 0.297 -0.082 0.434 c -0.055 0.133 -0.129 0.262 -0.223 0.387 c -0.09 0.125 -0.194 0.244 -0.311 0.361 c -0.117 0.117 -0.237 0.235 -0.357 0.352 c -0.101 0.098 -0.199 0.197 -0.297 0.299 c -0.094 0.098 -0.18 0.197 -0.258 0.299 c -0.074 0.097 -0.135 0.194 -0.182 0.291 c -0.043 0.094 -0.064 0.188 -0.064 0.281 l 0 0.012 l 1.912 0 l 0 0.334 l -2.334 0 c 0 -0.008 -0.002 -0.022 -0.006 -0.041 l 0 -0.1 c 0 -0.183 0.033 -0.354 0.1 -0.51 c 0.066 -0.16 0.151 -0.309 0.252 -0.449 c 0.105 -0.14 0.221 -0.272 0.346 -0.393 c 0.129 -0.121 0.252 -0.238 0.369 -0.352 c 0.098 -0.094 0.188 -0.184 0.273 -0.27 c 0.09 -0.09 0.168 -0.18 0.234 -0.273 c 0.066 -0.094 0.119 -0.194 0.158 -0.299 c 0.039 -0.105 0.059 -0.221 0.059 -0.346 c 0 -0.273 -0.074 -0.467 -0.223 -0.584 c -0.144 -0.121 -0.327 -0.182 -0.549 -0.182 c -0.125 0 -0.236 0.016 -0.334 0.047 c -0.097 0.031 -0.184 0.068 -0.258 0.111 c -0.07 0.039 -0.131 0.08 -0.182 0.123 c -0.051 0.043 -0.088 0.076 -0.111 0.1 l -0.199 -0.264 c 0.023 -0.027 0.065 -0.066 0.123 -0.117 c 0.062 -0.055 0.139 -0.108 0.229 -0.158 c 0.094 -0.051 0.201 -0.094 0.322 -0.129 c 0.121 -0.039 0.256 -0.059 0.404 -0.059 z" style="fill:#353535;fill-opacity:1"/>
</svg>
